icons/logo.svg

<svg width="64" height="71" viewBox="0 0 64 71" fill="none" xmlns="http://www.w3.org/2000/svg">
<g clip-path="url(#clip0_2_11)">
<path d="M44.3031 53.8323C44.0459 53.8323 43.7992 53.9346 43.6171 54.1168C43.435 54.299 43.3325 54.5462 43.3319 54.8042C43.3319 55.505 42.8595 56.0758 42.2794 56.0758H23.2905C22.7105 56.0758 22.238 55.505 22.238 54.8042C22.2262 54.5542 22.1188 54.3183 21.9382 54.1455C21.7575 53.9728 21.5175 53.8764 21.2679 53.8764C21.0184 53.8764 20.7784 53.9728 20.5977 54.1455C20.4171 54.3183 20.3097 54.5542 20.2979 54.8042C20.2979 56.5408 21.5855 57.9512 23.1873 58.0107V59.333C22.9479 59.356 22.7256 59.4676 22.5639 59.6461C22.4022 59.8246 22.3125 60.0571 22.3125 60.2983C22.3125 60.5395 22.4022 60.772 22.5639 60.9505C22.7256 61.129 22.9479 61.2406 23.1873 61.2635V62.5858C22.9461 62.6059 22.7212 62.7161 22.5573 62.8947C22.3933 63.0734 22.3023 63.3072 22.3023 63.55C22.3023 63.7927 22.3933 64.0266 22.5573 64.2052C22.7212 64.3838 22.9461 64.4941 23.1873 64.5142V64.7654C23.1884 65.5611 23.5041 66.3239 24.0651 66.8865C24.6261 67.4492 25.3866 67.7658 26.18 67.767H28.898V68.5581C28.8997 69.2066 29.1576 69.8279 29.6152 70.2859C30.0727 70.744 30.6927 71.0016 31.3392 71.0022H34.2242C34.8703 71.001 35.4896 70.7432 35.9467 70.2852C36.4038 69.8271 36.6614 69.2062 36.6631 68.5581V67.7604H39.3812C40.1745 67.7592 40.9351 67.4426 41.496 66.8799C42.057 66.3173 42.3727 65.5545 42.3739 64.7588V64.4921C42.5891 64.4442 42.7816 64.324 42.9195 64.1515C43.0575 63.979 43.1327 63.7645 43.1327 63.5434C43.1327 63.3223 43.0575 63.1077 42.9195 62.9352C42.7816 62.7628 42.5891 62.6426 42.3739 62.5946V61.2415C42.5891 61.1935 42.7816 61.0734 42.9195 60.9009C43.0575 60.7284 43.1327 60.5139 43.1327 60.2928C43.1327 60.0716 43.0575 59.8571 42.9195 59.6846C42.7816 59.5121 42.5891 59.392 42.3739 59.344V58.0107C43.9735 57.9512 45.2611 56.5408 45.2611 54.8042C45.2611 54.5483 45.1605 54.3028 44.9812 54.1208C44.8018 53.9389 44.5582 53.8352 44.3031 53.8323ZM34.7208 68.5581C34.7208 68.6908 34.6682 68.8181 34.5747 68.9119C34.4811 69.0057 34.3543 69.0584 34.222 69.0584H31.3392C31.2069 69.0584 31.08 69.0057 30.9865 68.9119C30.8929 68.8181 30.8404 68.6908 30.8404 68.5581V67.7604H34.723L34.7208 68.5581ZM39.3812 65.8144H26.18C25.901 65.8138 25.6336 65.7024 25.4364 65.5046C25.2391 65.3067 25.128 65.0386 25.1275 64.7588V64.5164H26.6326C26.7639 64.5226 26.8951 64.5021 27.0182 64.456C27.1413 64.41 27.2539 64.3393 27.349 64.2483C27.4441 64.1574 27.5198 64.048 27.5716 63.9268C27.6233 63.8056 27.65 63.6752 27.65 63.5434C27.65 63.4116 27.6233 63.2811 27.5716 63.1599C27.5198 63.0388 27.4441 62.9294 27.349 62.8384C27.2539 62.7474 27.1413 62.6768 27.0182 62.6307C26.8951 62.5847 26.7639 62.5641 26.6326 62.5704H25.1275V61.2724H26.6326C26.8902 61.2724 27.1372 61.1697 27.3193 60.9871C27.5015 60.8044 27.6038 60.5566 27.6038 60.2983C27.6038 60.0399 27.5015 59.7922 27.3193 59.6095C27.1372 59.4268 26.8902 59.3242 26.6326 59.3242H25.1275V58.0262H40.4315V59.3242H38.6033C38.3458 59.3242 38.0987 59.4268 37.9166 59.6095C37.7345 59.7922 37.6321 60.0399 37.6321 60.2983C37.6321 60.5566 37.7345 60.8044 37.9166 60.9871C38.0987 61.1697 38.3458 61.2724 38.6033 61.2724H40.4315V62.5704H38.6033C38.4721 62.5641 38.3409 62.5847 38.2177 62.6307C38.0946 62.6768 37.9821 62.7474 37.8869 62.8384C37.7918 62.9294 37.7161 63.0388 37.6644 63.1599C37.6126 63.2811 37.586 63.4116 37.586 63.5434C37.586 63.6752 37.6126 63.8056 37.6644 63.9268C37.7161 64.048 37.7918 64.1574 37.8869 64.2483C37.9821 64.3393 38.0946 64.41 38.2177 64.456C38.3409 64.5021 38.4721 64.5226 38.6033 64.5164H40.4315V64.7588C40.4303 65.0376 40.3192 65.3046 40.1224 65.5016C39.9257 65.6985 39.6592 65.8094 39.3812 65.81V65.8144Z" fill="white"/>
<path d="M34.397 59.3198H30.8374C30.5798 59.3198 30.3328 59.4225 30.1507 59.6051C29.9685 59.7878 29.8662 60.0356 29.8662 60.2939C29.8662 60.5522 29.9685 60.8 30.1507 60.9827C30.3328 61.1654 30.5798 61.268 30.8374 61.268H34.397C34.6546 61.268 34.9016 61.1654 35.0837 60.9827C35.2659 60.8 35.3682 60.5522 35.3682 60.2939C35.3682 60.0356 35.2659 59.7878 35.0837 59.6051C34.9016 59.4225 34.6546 59.3198 34.397 59.3198Z" fill="white"/>
<path d="M34.3977 62.566H30.8381C30.5888 62.5779 30.3536 62.6857 30.1814 62.8668C30.0092 63.048 29.9131 63.2887 29.9131 63.539C29.9131 63.7893 30.0092 64.0301 30.1814 64.2112C30.3536 64.3924 30.5888 64.5001 30.8381 64.512H34.3977C34.529 64.5183 34.6601 64.4977 34.7833 64.4517C34.9064 64.4056 35.019 64.335 35.1141 64.244C35.2092 64.153 35.2849 64.0436 35.3366 63.9225C35.3884 63.8013 35.4151 63.6708 35.4151 63.539C35.4151 63.4072 35.3884 63.2768 35.3366 63.1556C35.2849 63.0344 35.2092 62.925 35.1141 62.8341C35.019 62.7431 34.9064 62.6724 34.7833 62.6264C34.6601 62.5803 34.529 62.5598 34.3977 62.566Z" fill="white"/>
<path d="M34.8157 13.0222C34.6807 13.0087 34.5444 13.0237 34.4156 13.0662C34.2868 13.1088 34.1684 13.1781 34.0679 13.2695C33.9675 13.3609 33.8873 13.4724 33.8325 13.5968C33.7777 13.7213 33.7496 13.8559 33.75 13.9919V53.4775C33.75 53.7358 33.8523 53.9836 34.0345 54.1663C34.2166 54.3489 34.4636 54.4516 34.7212 54.4516H38.7071C39.6918 54.4498 40.6356 54.0566 41.3317 53.358C42.0278 52.6594 42.4193 51.7126 42.4204 50.7249V47.9063C42.4247 47.6134 42.5001 47.326 42.6403 47.0691C42.7804 46.8121 42.981 46.5934 43.2247 46.4319C45.7397 44.7222 47.7989 42.4205 49.2222 39.7283C50.6456 37.036 51.3898 34.035 51.3897 30.9877C51.3897 21.5267 44.42 13.9699 34.8157 13.0222ZM42.1348 44.8209C41.6292 45.1611 41.2142 45.62 40.9258 46.1577C40.6375 46.6954 40.4845 47.2957 40.4803 47.9063V50.7249C40.4797 51.1964 40.2927 51.6485 39.9603 51.9819C39.6278 52.3153 39.1772 52.5028 38.7071 52.5034H35.6924V15.096C43.7256 16.3742 49.4495 22.9019 49.4495 30.9877C49.4492 33.7172 48.7824 36.4052 47.5073 38.8166C46.2321 41.228 44.3876 43.2895 42.1348 44.8209Z" fill="white"/>
<path d="M44.7883 33.2973C44.6672 33.2574 44.5395 33.2418 44.4125 33.2514C44.2854 33.261 44.1615 33.2957 44.0478 33.3534C43.9341 33.4112 43.8329 33.4908 43.7499 33.5878C43.667 33.6848 43.6039 33.7973 43.5644 33.9188C43.1739 35.1093 42.5724 36.2194 41.789 37.1958C41.7031 37.2947 41.6379 37.4099 41.5975 37.5346C41.557 37.6593 41.5421 37.7909 41.5536 37.9215C41.565 38.0521 41.6027 38.1791 41.6643 38.2947C41.7258 38.4104 41.8101 38.5124 41.9119 38.5947C42.0137 38.6769 42.1311 38.7377 42.2569 38.7733C42.3827 38.809 42.5144 38.8188 42.6441 38.8022C42.7737 38.7856 42.8987 38.7429 43.0116 38.6766C43.1244 38.6104 43.2227 38.522 43.3007 38.4167C44.2281 37.2596 44.9397 35.9442 45.4013 34.5336C45.442 34.4121 45.4584 34.2837 45.4496 34.1558C45.4409 34.0279 45.407 33.9029 45.3501 33.7881C45.2932 33.6733 45.2143 33.5709 45.1179 33.4867C45.0215 33.4025 44.9095 33.3381 44.7883 33.2973Z" fill="white"/>
<path d="M40.3936 20.5152C40.285 20.4436 40.1633 20.3946 40.0355 20.371C39.9078 20.3475 39.7766 20.3499 39.6498 20.378C39.5229 20.4062 39.403 20.4597 39.2971 20.5351C39.1913 20.6106 39.1016 20.7067 39.0333 20.8176C38.9651 20.9284 38.9198 21.0519 38.9 21.1807C38.8802 21.3095 38.8864 21.4409 38.9182 21.5673C38.9499 21.6936 39.0066 21.8123 39.0849 21.9162C39.1633 22.0202 39.2616 22.1073 39.374 22.1725C40.7014 22.9831 41.8174 24.0987 42.6301 25.4272C43.4427 26.7557 43.9286 28.2591 44.0476 29.8131C44.0675 30.0569 44.1778 30.2843 44.3568 30.4504C44.5359 30.6165 44.7706 30.7092 45.0144 30.71H45.0936C45.3481 30.6871 45.5832 30.5642 45.7479 30.3681C45.9125 30.172 45.9932 29.9187 45.9725 29.6632C45.8321 27.8041 45.253 26.005 44.283 24.4144C43.313 22.8239 41.9799 21.4874 40.3936 20.5152Z" fill="white"/>
<path d="M22.2097 46.4606L22.346 46.4385C22.5871 46.5996 22.7854 46.8173 22.9237 47.0727C23.0619 47.3281 23.1359 47.6135 23.1392 47.9041V50.7249C23.1398 51.7129 23.531 52.6604 24.2272 53.3594C24.9233 54.0585 25.8675 54.452 26.8526 54.4538H30.8384C31.096 54.4538 31.343 54.3512 31.5252 54.1685C31.7073 53.9858 31.8096 53.738 31.8096 53.4797V16.7687C31.8117 16.2673 31.6967 15.7723 31.4739 15.3235C31.2511 14.8746 30.9266 14.4843 30.5264 14.1837C30.1243 13.8784 29.6569 13.671 29.1611 13.5781C28.6654 13.4852 28.1549 13.5091 27.67 13.6481C27.1624 13.7936 26.6592 13.9633 26.1714 14.1484C25.4281 13.8425 24.6326 13.6845 23.8291 13.6834C22.1958 13.6859 20.6282 14.3287 19.461 15.4746C18.2938 16.6206 17.6196 18.1788 17.5823 19.8166C16.628 20.0393 15.7392 20.4837 14.9876 21.114C14.2359 21.7444 13.6424 22.5429 13.2548 23.4454C12.8672 24.3479 12.6964 25.3292 12.7561 26.31C12.8158 27.2908 13.1044 28.2439 13.5986 29.0924C12.4898 30.2531 11.8688 31.7973 11.8643 33.4048C11.8598 35.0123 12.4721 36.5599 13.5744 37.7269C14.0952 38.2775 14.7108 38.7292 15.3916 39.0602C15.2198 39.9656 15.2491 40.8978 15.4774 41.7906C15.7057 42.6833 16.1275 43.5146 16.7126 44.2252C17.2978 44.9358 18.0319 45.5083 18.8628 45.9019C19.6937 46.2955 20.6009 46.5006 21.5198 46.5025C21.7503 46.5005 21.9806 46.4866 22.2097 46.4606ZM17.2439 40.691C17.2065 40.3368 17.2131 39.9792 17.2637 39.6266C17.5423 39.6685 17.8235 39.6906 18.1052 39.6927C18.9158 39.6917 19.7186 39.5338 20.4695 39.2277C20.702 39.1264 20.8858 38.9381 20.9817 38.7027C21.0775 38.4674 21.0779 38.2039 20.9827 37.9683C20.8875 37.7327 20.7042 37.5438 20.472 37.4419C20.2399 37.3399 19.9772 37.3331 19.74 37.4228C18.8429 37.791 17.8482 37.8455 16.9165 37.5773C15.9847 37.3091 15.1702 36.7339 14.6043 35.9446C14.0384 35.1552 13.7541 34.1976 13.7973 33.2264C13.8405 32.2551 14.2086 31.3267 14.8423 30.591C14.9499 30.6858 15.062 30.7827 15.1697 30.8709C15.817 31.3776 16.5582 31.7502 17.3504 31.967C18.1425 32.1838 18.9698 32.2404 19.7839 32.1337C20.1534 32.0836 20.5175 31.9995 20.8716 31.8824C21.3882 33.3067 22.4034 34.4941 23.7281 35.2234C23.9539 35.347 24.2194 35.3756 24.4662 35.3028C24.7131 35.2301 24.921 35.062 25.0442 34.8355C25.1675 34.609 25.196 34.3427 25.1235 34.0951C25.0509 33.8476 24.8833 33.6391 24.6575 33.5154C23.6547 32.9642 22.9106 32.0368 22.5881 30.9364C22.2656 29.836 22.3911 28.6523 22.937 27.6445C23.0539 27.4183 23.0777 27.1551 23.0033 26.9115C22.929 26.6679 22.7625 26.4632 22.5395 26.3413C22.3164 26.2193 22.0547 26.1899 21.8102 26.2592C21.5658 26.3286 21.3582 26.4912 21.232 26.7123C20.693 27.7069 20.434 28.8298 20.4827 29.9607C20.1755 30.0767 19.8564 30.1581 19.5313 30.2031C18.9685 30.2764 18.3968 30.2375 17.849 30.0887C17.3012 29.9399 16.7881 29.6842 16.339 29.3362C15.8899 28.9881 15.5137 28.5546 15.232 28.0605C14.9503 27.5664 14.7686 27.0213 14.6973 26.4567C14.5688 25.4258 14.8142 24.3829 15.3886 23.5183C15.963 22.6538 16.8281 22.0251 17.8262 21.7471C18.1639 22.8754 18.8111 23.8857 19.6939 24.6628C19.887 24.8331 20.1398 24.9196 20.3965 24.903C20.6532 24.8865 20.8929 24.7684 21.0628 24.5746C21.2326 24.3808 21.3188 24.1273 21.3023 23.8699C21.2858 23.6124 21.1681 23.372 20.9749 23.2016C20.3153 22.6207 19.8482 21.8518 19.6358 20.9976C19.4235 20.1433 19.476 19.2444 19.7865 18.4209C20.0969 17.5975 20.6505 16.8886 21.3733 16.389C22.096 15.8894 22.9535 15.6228 23.8313 15.625C24.5053 15.6224 25.1702 15.7803 25.7715 16.0856C25.9402 16.1707 26.1299 16.2047 26.3176 16.1836C26.5053 16.1625 26.6827 16.0871 26.8284 15.9665C27.2679 15.7969 27.7337 15.6426 28.1951 15.5104C28.3926 15.4537 28.6005 15.4442 28.8023 15.4825C29.0041 15.5207 29.1942 15.6057 29.3575 15.7307C29.5178 15.8502 29.6478 16.0058 29.7371 16.185C29.8264 16.3641 29.8725 16.5618 29.8716 16.7621V20.4579C29.4313 20.0794 28.9411 19.7635 28.4148 19.5191C27.6697 19.1714 26.8631 18.9757 26.0419 18.9436C25.2207 18.9114 24.4013 19.0434 23.6314 19.3318C23.5119 19.376 23.4023 19.4435 23.3088 19.5302C23.2154 19.617 23.1399 19.7214 23.0866 19.8374C23.0334 19.9534 23.0034 20.0789 22.9985 20.2065C22.9936 20.3341 23.0137 20.4615 23.0579 20.5813C23.102 20.7011 23.1693 20.811 23.2558 20.9048C23.3423 20.9985 23.4464 21.0743 23.562 21.1277C23.6777 21.1811 23.8028 21.2111 23.93 21.2161C24.0573 21.221 24.1843 21.2008 24.3037 21.1565C25.3769 20.7594 26.5633 20.8061 27.6021 21.2864C28.641 21.7666 29.447 22.641 29.8431 23.7173C29.8513 23.7349 29.8608 23.7519 29.8716 23.768V52.5034H26.8526C26.3827 52.5028 25.9322 52.3152 25.6002 51.9817C25.2681 51.6483 25.0816 51.1962 25.0816 50.7249V47.9041C25.0826 47.1499 24.8525 46.4136 24.4224 45.795C25.3337 45.3254 26.1149 44.6369 26.6965 43.791C27.2781 42.945 27.642 41.9679 27.7557 40.9467C27.7701 40.8198 27.7594 40.6912 27.7244 40.5685C27.6893 40.4457 27.6304 40.331 27.5511 40.2311C27.4719 40.1311 27.3737 40.0478 27.2624 39.9858C27.151 39.9239 27.0285 39.8846 26.902 39.8701C26.7755 39.8556 26.6474 39.8663 26.5249 39.9015C26.4025 39.9367 26.2882 39.9957 26.1885 40.0752C26.0889 40.1547 26.0058 40.2532 25.944 40.3649C25.8823 40.4766 25.8431 40.5994 25.8287 40.7263C25.6999 41.777 25.1917 42.744 24.4002 43.4443C23.6087 44.1446 22.5887 44.5297 21.5332 44.5267C20.4778 44.5237 19.46 44.1329 18.6724 43.4281C17.8848 42.7233 17.3821 41.7535 17.2593 40.702L17.2439 40.691Z" fill="white"/>
<path d="M7.71801 29.9916H0.967983C0.718683 30.0035 0.483522 30.1112 0.311288 30.2924C0.139054 30.4735 0.0429688 30.7143 0.0429688 30.9646C0.0429688 31.2149 0.139054 31.4556 0.311288 31.6368C0.483522 31.8179 0.718683 31.9256 0.967983 31.9376H7.71801C7.96731 31.9256 8.20247 31.8179 8.37471 31.6368C8.54694 31.4556 8.64302 31.2149 8.64302 30.9646C8.64302 30.7143 8.54694 30.4735 8.37471 30.2924C8.20247 30.1112 7.96731 30.0035 7.71801 29.9916Z" fill="white"/>
<path d="M20.8379 9.60414L17.2168 3.89188C17.0763 3.679 16.8582 3.52989 16.6094 3.47664C16.3605 3.42339 16.1007 3.47025 15.8859 3.60713C15.6711 3.74401 15.5185 3.95999 15.4608 4.20859C15.4031 4.4572 15.4451 4.71857 15.5776 4.93648L19.2009 10.6487C19.2661 10.7632 19.3538 10.8631 19.4586 10.9426C19.5635 11.022 19.6833 11.0793 19.8109 11.111C19.9385 11.1426 20.0711 11.148 20.2008 11.1267C20.3305 11.1054 20.4545 11.058 20.5654 10.9872C20.6763 10.9165 20.7717 10.8239 20.8459 10.7151C20.92 10.6063 20.9714 10.4835 20.9969 10.3542C21.0223 10.2249 21.0214 10.0917 20.994 9.9628C20.9667 9.83388 20.9136 9.71186 20.8379 9.60414Z" fill="white"/>
<path d="M11.4193 18.5076L5.44487 15.3628C5.33163 15.2978 5.20649 15.2563 5.07692 15.2409C4.94735 15.2254 4.81601 15.2364 4.69073 15.273C4.56546 15.3096 4.44883 15.3711 4.3478 15.4539C4.24677 15.5368 4.16342 15.6391 4.10271 15.755C4.04201 15.8708 4.0052 15.9978 3.99449 16.1282C3.98378 16.2586 3.99938 16.3899 4.04036 16.5141C4.08134 16.6383 4.14686 16.753 4.23301 16.8513C4.31917 16.9496 4.42418 17.0295 4.54179 17.0862L10.5184 20.231C10.6312 20.2903 10.7546 20.3268 10.8814 20.3383C11.0083 20.3498 11.1362 20.3361 11.2578 20.2981C11.3794 20.26 11.4924 20.1983 11.5902 20.1164C11.688 20.0346 11.7688 19.9342 11.828 19.8211C11.8871 19.7079 11.9235 19.5842 11.9349 19.4569C11.9464 19.3297 11.9328 19.2014 11.8948 19.0794C11.8569 18.9575 11.7953 18.8442 11.7137 18.7461C11.6322 18.648 11.5321 18.5669 11.4193 18.5076Z" fill="white"/>
<path d="M43.6071 9.60414L47.2282 3.89188C47.3686 3.679 47.5867 3.52989 47.8356 3.47664C48.0845 3.42339 48.3443 3.47025 48.5591 3.60713C48.7739 3.74401 48.9265 3.95999 48.9842 4.20859C49.0418 4.4572 48.9999 4.71857 48.8674 4.93648L45.2441 10.6487C45.1789 10.7632 45.0912 10.8631 44.9863 10.9426C44.8815 11.022 44.7616 11.0793 44.6341 11.111C44.5065 11.1426 44.3738 11.148 44.2442 11.1267C44.1145 11.1054 43.9904 11.058 43.8795 10.9872C43.7687 10.9165 43.6733 10.8239 43.5991 10.7151C43.5249 10.6063 43.4736 10.4835 43.4481 10.3542C43.4226 10.2249 43.4236 10.0917 43.4509 9.9628C43.4783 9.83388 43.5314 9.71186 43.6071 9.60414Z" fill="white"/>
<path d="M53.0284 18.5076L59.0028 15.3627C59.116 15.2977 59.2412 15.2563 59.3707 15.2408C59.5003 15.2254 59.6317 15.2363 59.7569 15.2729C59.8822 15.3095 59.9988 15.3711 60.0999 15.4539C60.2009 15.5367 60.2842 15.6391 60.345 15.7549C60.4057 15.8708 60.4425 15.9977 60.4532 16.1281C60.4639 16.2586 60.4483 16.3898 60.4073 16.5141C60.3663 16.6383 60.3008 16.753 60.2146 16.8513C60.1285 16.9496 60.0235 17.0294 59.9059 17.0861L53.9293 20.2309C53.8165 20.2903 53.6931 20.3267 53.5662 20.3382C53.4393 20.3497 53.3115 20.3361 53.1899 20.298C53.0683 20.2599 52.9553 20.1982 52.8575 20.1164C52.7597 20.0345 52.6789 19.9342 52.6197 19.821C52.5606 19.7079 52.5242 19.5841 52.5127 19.4569C52.5013 19.3296 52.5149 19.2014 52.5528 19.0794C52.5908 18.9574 52.6523 18.8442 52.7339 18.746C52.8155 18.6479 52.9156 18.5669 53.0284 18.5076Z" fill="white"/>
<path d="M63.0266 29.9916H56.2766C56.0273 30.0035 55.7921 30.1112 55.6199 30.2924C55.4476 30.4735 55.3516 30.7142 55.3516 30.9646C55.3516 31.2149 55.4476 31.4556 55.6199 31.6368C55.7921 31.8179 56.0273 31.9256 56.2766 31.9375H63.0266C63.2759 31.9256 63.5111 31.8179 63.6833 31.6368C63.8555 31.4556 63.9516 31.2149 63.9516 30.9646C63.9516 30.7142 63.8555 30.4735 63.6833 30.2924C63.5111 30.1112 63.2759 30.0035 63.0266 29.9916Z" fill="white"/>
<path d="M32.9697 7.73315V0.974082C32.9697 0.715739 32.8674 0.467977 32.6853 0.285302C32.5031 0.102626 32.2561 0 31.9985 0C31.741 0 31.4939 0.102626 31.3118 0.285302C31.1297 0.467977 31.0273 0.715739 31.0273 0.974082V7.73315C31.0273 7.9915 31.1297 8.23926 31.3118 8.42193C31.4939 8.60461 31.741 8.70724 31.9985 8.70724C32.2561 8.70724 32.5031 8.60461 32.6853 8.42193C32.8674 8.23926 32.9697 7.9915 32.9697 7.73315Z" fill="white"/>
</g>
<defs>
<clipPath id="clip0_2_11">
<rect width="64" height="71" fill="white"/>
</clipPath>
</defs>
</svg>

<svg width="64" height="71" fill="none" xmlns="http://www.w3.org/2000/svg"><g clip-path="url(#a)" fill="#fff"><path d="M44.303 53.832a.97.97 0 0 0-.971.972c0 .701-.473 1.272-1.053 1.272H23.29c-.58 0-1.052-.571-1.052-1.272a.975.975 0 0 0-.97-.928.97.97 0 0 0-.97.928c0 1.737 1.288 3.147 2.89 3.207v1.322a.966.966 0 0 0-.875.965.972.972 0 0 0 .874.965v1.323a.964.964 0 0 0-.885.964.969.969 0 0 0 .885.964v.251a3.01 3.01 0 0 0 .878 2.121c.561.563 1.322.88 2.115.881h2.718v.791c.002.649.26 1.27.717 1.728a2.44 2.44 0 0 0 1.724.716h2.885a2.44 2.44 0 0 0 1.723-.717 2.454 2.454 0 0 0 .716-1.727v-.798h2.718a2.992 2.992 0 0 0 2.115-.88 3.01 3.01 0 0 0 .878-2.121v-.267a.968.968 0 0 0 .759-.949.974.974 0 0 0-.76-.948v-1.353a.968.968 0 0 0 .76-.95.974.974 0 0 0-.76-.948v-1.333c1.6-.06 2.888-1.47 2.888-3.207a.974.974 0 0 0-.958-.972zm-9.582 14.726a.501.501 0 0 1-.499.5h-2.883a.498.498 0 0 1-.499-.5v-.798h3.883l-.002.798zm4.66-2.744H26.18a1.053 1.053 0 0 1-1.052-1.055v-.243h1.505a.97.97 0 0 0 1.017-.973.978.978 0 0 0-.632-.912.969.969 0 0 0-.385-.06h-1.505v-1.299h1.505a.97.97 0 0 0 .97-.974.975.975 0 0 0-.97-.974h-1.505v-1.298H40.43v1.298h-1.828a.97.97 0 0 0-.97.974.976.976 0 0 0 .97.974h1.828v1.298h-1.828a.97.97 0 0 0-1.017.973.975.975 0 0 0 1.017.973h1.828v.243a1.057 1.057 0 0 1-1.05 1.051v.004z"/><path d="M34.397 59.32h-3.56a.97.97 0 0 0-.97.974.975.975 0 0 0 .97.974h3.56a.97.97 0 0 0 .971-.974.975.975 0 0 0-.971-.974zM34.398 62.566h-3.56a.97.97 0 0 0-.925.973.976.976 0 0 0 .925.973h3.56a.97.97 0 0 0 1.017-.973.975.975 0 0 0-1.017-.973zM34.816 13.022a.97.97 0 0 0-1.066.97v39.485a.975.975 0 0 0 .971.975h3.986a3.715 3.715 0 0 0 2.625-1.094 3.736 3.736 0 0 0 1.088-2.633v-2.819a1.803 1.803 0 0 1 .805-1.474 18.638 18.638 0 0 0 5.997-6.704 18.7 18.7 0 0 0 2.168-8.74c0-9.461-6.97-17.018-16.574-17.966zm7.319 31.799a3.744 3.744 0 0 0-1.655 3.085v2.819c0 .471-.187.923-.52 1.257-.332.333-.783.52-1.253.521h-3.015V15.096c8.034 1.278 13.758 7.806 13.758 15.892 0 2.73-.668 5.417-1.943 7.829a16.698 16.698 0 0 1-5.372 6.004z"/><path d="M44.788 33.297a.968.968 0 0 0-1.224.622c-.39 1.19-.992 2.3-1.775 3.277a.975.975 0 0 0 .855 1.606.969.969 0 0 0 .657-.385 12.35 12.35 0 0 0 2.1-3.883.978.978 0 0 0-.613-1.237zM40.394 20.515a.97.97 0 0 0-1.476 1.052.974.974 0 0 0 .456.605 9.813 9.813 0 0 1 3.256 3.255 9.847 9.847 0 0 1 1.418 4.386.978.978 0 0 0 .966.897h.08a.968.968 0 0 0 .878-1.047c-.14-1.859-.719-3.658-1.689-5.249a11.745 11.745 0 0 0-3.89-3.899zM22.21 46.46l.136-.022a1.785 1.785 0 0 1 .793 1.466v2.82c0 .989.392 1.936 1.088 2.635.696.7 1.64 1.093 2.626 1.095h3.985a.97.97 0 0 0 .972-.974V16.769a3.22 3.22 0 0 0-1.284-2.585 3.247 3.247 0 0 0-2.856-.536 18.99 18.99 0 0 0-1.499.5 6.176 6.176 0 0 0-2.342-.465 6.249 6.249 0 0 0-4.368 1.792 6.286 6.286 0 0 0-1.879 4.342 6.248 6.248 0 0 0-2.594 1.297 6.273 6.273 0 0 0-2.232 5.196c.06.98.348 1.934.843 2.782a6.269 6.269 0 0 0 1.793 9.968 6.29 6.29 0 0 0 1.32 5.165 6.254 6.254 0 0 0 4.808 2.277c.23-.002.46-.015.69-.041zm-4.966-5.769a4.309 4.309 0 0 1 .02-1.064c.278.041.56.064.841.066a6.284 6.284 0 0 0 2.364-.465.973.973 0 0 0 .514-1.26.973.973 0 0 0-1.243-.545 4.301 4.301 0 0 1-5.136-1.478 4.335 4.335 0 0 1 .238-5.354c.108.095.22.192.328.28a6.187 6.187 0 0 0 4.614 1.263c.37-.05.733-.134 1.088-.252a6.243 6.243 0 0 0 2.856 3.341.967.967 0 0 0 1.316-.387.975.975 0 0 0-.387-1.32 4.332 4.332 0 0 1-2.069-2.58 4.346 4.346 0 0 1 .349-3.291.976.976 0 0 0-.398-1.304.969.969 0 0 0-1.307.371 6.254 6.254 0 0 0-.75 3.249 4.402 4.402 0 0 1-.95.242 4.3 4.3 0 0 1-3.193-.867 4.323 4.323 0 0 1-1.642-2.88 4.34 4.34 0 0 1 .692-2.938 4.318 4.318 0 0 1 2.437-1.77 6.285 6.285 0 0 0 1.868 2.915.968.968 0 0 0 1.608-.793.974.974 0 0 0-.327-.668 4.328 4.328 0 0 1-1.189-4.781 4.324 4.324 0 0 1 1.587-2.032c.723-.5 1.58-.766 2.458-.764a4.25 4.25 0 0 1 1.94.46.971.971 0 0 0 1.057-.119c.44-.17.906-.323 1.367-.456a1.313 1.313 0 0 1 1.163.22 1.277 1.277 0 0 1 .514 1.032v3.696a6.315 6.315 0 0 0-1.457-.939 6.182 6.182 0 0 0-4.784-.187.969.969 0 0 0-.633.874.975.975 0 0 0 .932 1.01.967.967 0 0 0 .374-.06 4.301 4.301 0 0 1 3.298.13 4.32 4.32 0 0 1 2.241 2.431.376.376 0 0 0 .029.051v28.735h-3.02c-.47 0-.92-.188-1.252-.521a1.78 1.78 0 0 1-.518-1.257v-2.82a3.686 3.686 0 0 0-.66-2.11 6.215 6.215 0 0 0 2.274-2.004 6.24 6.24 0 0 0 1.06-2.844.978.978 0 0 0-.494-.961.97.97 0 0 0-1.433.74 4.333 4.333 0 0 1-1.429 2.718 4.308 4.308 0 0 1-5.728-.016 4.332 4.332 0 0 1-1.413-2.726l-.015-.011zM7.718 29.992H.968a.97.97 0 0 0-.925.973.976.976 0 0 0 .925.973h6.75a.97.97 0 0 0 .925-.973.976.976 0 0 0-.925-.973zM20.838 9.604l-3.621-5.712a.972.972 0 0 0-1.64 1.044l3.624 5.713a.974.974 0 0 0 1 .478.97.97 0 0 0 .796-.773.977.977 0 0 0-.16-.75zM11.42 18.508l-5.975-3.145a.969.969 0 0 0-1.45.765.977.977 0 0 0 .547.958l5.976 3.145a.968.968 0 0 0 1.417-.774.974.974 0 0 0-.516-.95zM43.607 9.604l3.621-5.712a.971.971 0 0 1 1.64 1.044l-3.624 5.713a.973.973 0 0 1-1.364.338.973.973 0 0 1-.273-1.383zM53.028 18.508l5.975-3.145a.97.97 0 0 1 1.404 1.151.975.975 0 0 1-.501.572l-5.977 3.145a.966.966 0 0 1-1.31-.41.976.976 0 0 1 .41-1.313zM63.027 29.992h-6.75a.97.97 0 0 0-.925.973.975.975 0 0 0 .925.973h6.75a.97.97 0 0 0 .925-.973.975.975 0 0 0-.925-.973zM32.97 7.733V.974A.976.976 0 0 0 31.999 0a.97.97 0 0 0-.972.974v6.76a.976.976 0 0 0 .971.973.97.97 0 0 0 .972-.974z"/></g><defs><clipPath id="a"><path fill="#fff" d="M0 0h64v71H0z"/></clipPath></defs></svg>
